X: 1352
T: Tir the Ribbons
R:Reel
N:Collected by Mrs. Cantwell
B:O'Neill's 1352
Z:Transcribed by Trish O'Neil
M:C|
L:1/8
K:G
BGEF GBAG|FGAG FDDc|BGEFG2(ef)|gefd Beed|
BGEF GBAG|FGAG FDDc|BGEFG2(ef)|{a}gefd Beef||
gfga bgeg|fgag fddf|gfga bgeg|gefd Beef|
gfga bgeg|fgag fd (3def|gabg fgaf|gfed Beed|]


